X:220
T:The Church's One Foundation
%%stretchlast false
M:4/4
L:1/4
K:C clef=C1
"^I"[C,G,CE] [C,G,CE] [C,G,CE] "^IV²"[C,A,CF] | "^I"[C,G,CE] "^I²"[G,,G,CE]2 "^V7³"[F,,G,B,D] | "^I¹"[E,,G,C] "^ii7¹"[F,,D,A,C] [F,,D,CA] "^I²"[G,,E,CG] | "^V7"[G,,G,B,F] "^I"[C,G,CE]3 | "^V7²"[D,G,B,F] "^I¹"[E,G,CG] [E,G,Cc] "^III+"[E,^G,Ec] | "^iii7"[E,,G,DB] "^iv°7"[F,,^G,DB]2 "^IV"[F,,A,CA] | "^iii¹"[G,,B,EG] "^IV¹"[A,,CF] "^V¹"[B,,DG] "^I"[C,G,CE] | "^♭v°¹"[A,,^F,C] "^V"[G,,G,B,D]3 | [G,,G,B,D] "^I"[C,G,CE] "^V7²"[D,G,B,F] "^I¹"[E,G,CG] | "^IV"[F,CA] [F,CA]2 "^I¹"[E,G,CG] | "^vi"[A,,A,Ec] "^vi²"[E,A,Ec]3/2 "^III7³"[D,^G,EB]/ "^vi¹"[C,A,EA] | "^V/ii¹"[^C,A,E] "^ii"[D,A,DF]3 | "^V¹"[B,,G,D] "^I"[C,G,CE] [C,G,CE] "^IV²"[C,A,CF] | "^I"[C,G,CE] "^IV"[F,,G,A,E]2 "^ii¹"[F,,F,A,D] | "^IV"[F,,F,A,C] "^ii7"[D,,F,A,C] "^ii"[D,,F,A,D] "^vi"[G,,D,A,C] | "^V7"[G,,F,G,B,] "^I"[C,E,G,C]3 |]
